symbols/web/inbox/materialsymbolssharp/inbox_wght700fill1_20px.svg

<svg xmlns="http://www.w3.org/2000/svg" height="20" width="20"><path d="M1.792 18.208V1.792h16.416v16.416ZM10 13.104q.792 0 1.438-.448.645-.448 1-1.198H15.5V4.5h-11v6.958h3.062q.355.75 1 1.198.646.448 1.438.448Z"/></svg>

<svg xmlns="http://www.w3.org/2000/svg" height="20" width="20"><path d="M1.792 18.208V1.792H18.208V18.208ZM10 13.104Q10.792 13.104 11.438 12.656Q12.083 12.208 12.438 11.458H15.5V4.5H4.5V11.458H7.562Q7.917 12.208 8.562 12.656Q9.208 13.104 10 13.104Z"/></svg>
